X: 1595
T: Rast Geldim Mürg-i Zâr İçre
C: Hatibzâde Osman Efendi
O: Turkey
F: http://compmusic.upf.edu/node/140
N: rast--kar-i_natik--cenber--rast_geldim--hatibzade_osman_efendi
N: makam= rast
N: form= kar-i_natik
N: usul= cenber = 24/4
M: 24/4
L: 1/16
K: C _1/4B ^f  
Q: 1/4=40.5
%%MIDI tuningsystem comma53
G8 G4 A4 G4 F2G2 F4 G4  | G2z2 B2c2 d4 =f2e2 d2e2 ded2 c2B6  | 
w:   |   | 
e2d6 cBA2 B2c2 ded2 c4 d2cB B2c2  | \
w:   | 
B^AB4z4=A2 B2c4d4c4B2 d2cB  | 
w:   | 
c2B3AG4z2 A4 c2B3AG4z2 A4  | G2A2 B2AG A2c2 B6AG G6z2 z2e=f  | 
w:   |   | 
e2d2 d6z2 d4 c2d2 e3d g3=f f3e  | \
w:   | 
e3d d3c d2c3/2B/ AcB4A2 B2c2 d2cB c2d2  | 
w:   | 
z2Bc B2c2 B4 A4 z2G4B2 A3G F2B2  | \
w:   | 
A2G2 F2B2 AGG8z2 d4 e2g2 =f2e2  | 
w:   | 
d2e2 ded2 c2d2 c2B2 ^A2d2 cBB6 z2c4e2 d2c2 B4 c2B=A G2z2 A4 c2c2 (3BABB4AG G4 e2f2 edd8z4z4G4G2 G2G4G4G4D4D4F2 G2A4B4B3AG2 A2G2 A2G4z4F2 G2A2  | 
w:   | 
B2c3BA2 B2c4cz c2=B2 A2A2 ^GABc BAG2  | \
w:   | 
A6z4z4z4G2 d2d4e2 d2^c2  | 
w:   | 
ede2 d^cd4z2 G4 A2B3AG2 ABA2 B4  | \
w:   | 
c2BA cBc2 BAB4z4B2 d2c2 B3A G4  | 
w:   | 
G2D4D2 G8 z4 z4 z2e=f e2d2  | d4 d4 d4 c2d2 e2de d2c2 ede2 dcd4z2 cdc2 d2e2 g2=f2 e2d2 e3d c2d2 c2e2  | 
w:   |   | 
d4 z4 e2d2 c2d2 e2d2 c2d2 c2g2 =fgf2  | \
w:   | 
e=fe2 d2e2 ded2 c2e2 d2c2 B2e2 dcc4c2  | 
w:   | 
z2z4A2 B2c2 d2c2 B2dc d2cB c4 z2Bc  | \
w:   | 
B2cd c2e2 d2c2 B2B2 d2c2 B2A2 A8  | 
w:   | 
A4 A2d2 c2B3AG4z2 D4 G2G8G4z4z2 e=fe2 d2d4d2 z2d8d3^c=B2 c2d4e2 d2c2 d6z2 e3d  | 
w:   | 
^c2d2 e4 g2=f2 e2e3dc2 d2c2 d2ef edd8G4d4d4d4d2 c2_7/8BA B2c4c4c4f4f2 e2d2 c2B2 A2G2 F2G6 z2c2 d2e2 f2e2 d2e2 d2c2 d3c d2e2  | 
w:   | 
d4 e4 e6z2 e4 g2=f2 e2e2 d3^c  | d2e2 d4 e2f2 e4 ^d4 =d2e2 d2^c2 z2de  | 
w:   |   | 
d2e2 e2g2 f2e2 e8 e2^9/8f2 g4 e2f2  | \
w:   | 
g4 g8 g3^9/8f e2f2 g4 a2g2 f2g6 z2g3fe2 f2e4g4^f4g2 f2e2  | 
w:   | 
e2d2 e2d2 ^c2d4z4e4g2 =f2e2 e2d3cd2 e2d4g2 fgf2 e2f2 e2f2 e2d2 e2d2  | 
w:   | 
^c2e2 d3c d2e2 e2d3cc_7/8B c2BA B6z2  | \
w:   | 
d4 e2d2 ^c2ed3e2 d2c2 z2d4e2 e4  | 
w:   | 
g2=f2 e2e2 d3^c _7/8B2c2 dcde d2c2 B4 A2d2  | \
w:   | 
^c_7/8BB4c2 d2c4B2 A2=f2 e2d2 c2c2 B4  | 
w:   | 
A2d2 ^c2_7/8B2 AGG8z4z4z4z4d16e4g2 =f2e2 d8 d4 z4 d6=c2 c8 _e2d4c4_B6 A2G4d4z4^c2 d2=e2  | 
w:   | 
=f2e2 d2e3d^c2 d2c2 d2e2 d2d8d4z4d4e4e8f3ef2 g2g2  | 
w:   | 
=f3e d2e2 e2g2 f2e2 d2a2 g4 f2e2 e2d2  | \
w:   | 
e2d2 c2d8z4d2 e2d4c2 B2c2  | 
w:   | 
d2c2 B2z2 g2f2 g2g3fe2 =f2e2 f2e2 d2d8z4z4d16^f2  | \
w:   | 
e4 d2e2 f8 f6z2 f2g2 f2e2  | 
w:   | 
g2f2 g2f2 e2f8z4d2 e2f4g2  | a2f4f2 g2f4e4e2 d6B2 c2d2  | 
w:   |   | 
c2B2 d8 z4 z4 f16 g4 a4 a8 a4 g2=f2 _b4  | \
w:   | 
a2g2 g2=f2 g2f2 e2d8z4^c2 d2e4f2 e2d2 d8 d4 _7/8e2d2 =c2c8e2 d4 c4 _BABc B2A2 G6z2 d4  | 
w:   | 
e2c2 d8 d6z2 d2e4d2 d8 d4 z4 z4 c2d2 c4 d4 d2e2  | \
w:   | 
d2c2 c2B2 d4 z2e2 d2c2 c2d2 c2B2 c2d2  | 
w:   | 
c2B2 A3G F2B2 A4 F2G2 F4 E4 D2E6 z4 z4 z4 d2d2 d4 e4 g3f  | 
w:   | 
^e2a2 gff8z4f2 g2f4=e4d2  | e2d2 c2B2 z2g2 f2g2 a2g3fe2 =f2e2 g2f2  | 
w:   |   | 
e2d2 d8 z4 z4 A4 F2G2 A4  | A4 A2A2 A4 z2A4d2 c2B2 A2G2 A2G4A2 GFAG FGA4z4A2 B2B2 A4 G2F2  | 
w:   |   | 
E2F2 A2G2 G2F4D2 EDEF E2D2 ^C2D6  | \
w:   | 
c4 d4 d8 a2g4=f2 e2e3dc2  | 
w:   | 
d2c2 e2d2 c2B2 z2e2 d2c2 c2B2 c2B2 A2A8z4A2 d2d2 c4 B2A2 A2z2 F2G2  | 
w:   | 
F4 E4 D2E6 z4 z4 _1/4d3c c2B2  | c4 z4 c4 B2c2 c4 c2_1/4d2 e2d2 c2c2  | 
w:   |   | 
B2z2 _1/4d2c2 d2d2 c4 d2d2 c3B A4 c2B2  | \
w:   | 
A2B2 c2B2 A2B4z4c2 _1/4d2c4d4e2  | 
w:   | 
_1/4d2c4B2 z2cd c2d2 e2d2 c4 B2c2 B3A  | \
w:   | 
A4 c2BA A4 z4 z4 z4 c2_1/4d2 c2d2  | 
w:   | 
c2_1/4d2 e2g2 =f2e2 d2z2 f2e2 f2g4b2 _1/4a2g2  | \
w:   | 
=f4 e4 fefg e2_1/4d2 e2d3cB2 e2dc c4  | 
w:   | 
c2_1/4d2 e2=f2 g2_1/4a2 g2f2 e2d2 cza2 g2f2 f3e  | \
w:   | 
e3_1/4d d2c2 B2e2 dcc8z4z4g4e2 =f2g4g4g4g2 g2g4g4z2  | 
w:   | 
g2b2 _1/4a2g2 =f4 e2f2 g2a2 g2f2 gfef g4  | \
w:   | 
z4 g2b2 a4 g4 =f4 e4 d4 g4  | 
w:   | 
z2=fg f2e2 e2d2 c2d2 e2f4e2 a2gf f8 z4 c2d2 c4 d4 e2d2 e2d2 c2d2  | 
w:   | 
c2B2 c2d2 z2e2 d2c2 c2d2 c2B2 c3B A4  | \
w:   | 
B2c2 B4 z4 c2_1/4d2 c4 d4 e2d2 c2d2  | 
w:   | 
c2B2 z2c_1/4d c2d2 d2c4B2 c2BA A4 c3B  | \
w:   | 
A4 z4 z4 A4 A2A2 A4 e2d2 c6z2 d2e2 d2e2 c4 d2e2 d4 e4 e2f2  | 
w:   | 
g2a2 a2g2 =f2e2 e4 e2e2 e2f2 d4 g4  | \
w:   | 
=f2e2 a4 g2f2 fefg e2d2 d2c2 B2e2 d2c2  | 
w:   | 
B2e2 dcc6 z2g4g2 g2g4g4g2  | _b2a2 g2g=f g2fe f4 f4 d2e2 d4 g2f2  | 
w:   |   | 
=f2e2 f2e2 d2d2 c2B2 e2dc c3B A2A2 A4  | \
w:   | 
A4 A2c2 B2A2 B2A2 G2F2 G2G4B2 d2c2  | 
w:   | 
B4 A4 A2d2 c2B2 A2A8e4e8e4e4=f2 g2e4f2 e2d2 d4  | \
w:   | 
e2c2 c3B A4 d2c2 B2d2 c2B2 c3B A4  | 
w:   | 
z4 A2A2 A4 e4 e4 e2^d2 ^1/4f6e2  | \
w:   | 
a6^g2 g2^1/4f2 g2f2 e2e8e4z4z4a8=b2 a2g2 g2f2 g2f2 e2e4=f2 e2d2 d4 e2d2 c3B A4 B2d2 c2B2  | 
w:   | 
c3B A4 z4 A2A2 A4 A4 A6G2  | d2c2 d2e2 c4 B2c2 B4 A4 A2d2 c2B2  | 
w:   |   | 
A2A8d4c2 d2c4=B2 c2B2 c2B2  | c2=B4d2 c2B2 A16 z4  | \
w:   |   | 
=B4 A4 G4 A4 B4 c4 d4 e4  | 
w:   | 
d4 d2c4=B2 c2e2 d2c2 B2A12z4d2 c2B2 c2d16z4d2 _e2d4c4d4e4d4e4g2  | 
w:   | 
f2_e2 d2c2 =B2c4d4=e4e8e4a2 e2e6 d2d4=f2 e2d2 d2c2 B2c4z4B2 c2B4c4d4f2 e2d2 c4  | 
w:   | 
=B2c2 e2d2 c2B2 A4 B4 G4 d4 d12 c4 e6d2 d2c2 c2B2 B2A2  | \
w:   | 
G4 z4 =B2c2 B4 A4 B4 c2B2 B2A2  | 
w:   | 
A2^G2 A12 z4 z2d4e2 e8 g=fed ^c4 fedc _7/8BA=G2 z2_B6 B4  | 
w:   | 
_BAG2 z2B4A2 B2^c2 BAB2 eddc d2c_7/8B BAc2  | 
w:   | 
_7/8BAA4z4z4g2 g2g4g4g2 _7/8b2a2  | \
w:   | 
g2g=f fef4a2 g2f2 e2d2 c2d2 a2a2 g3f  | 
w:   | 
e2=f2 e2f2 g2a2 gfg2 ^f8 f4 z4  | \
w:   | 
z4 e2=f2 e4 f4 g4 _7/8b2a2 g2gf feed  | 
w:   | 
d^cd4d2 d2d2 d4 e2d=c z2c4_B2 c2_e2  | \
w:   | 
d2c2 c2_B4c2 cBA^G A4 z4 A2B2 A4  | 
w:   | 
_B4 z2c4=f2 f2_7/8e2 d2c2 z2B4c2 BAA4G4z2 ABc2 BAAG A2GA B2c2 BAA8z4z4d4d2 d2d4f2 =e2e2 d2e2  | 
w:   | 
d2^c2 d6z2 e4 d2e2 c2e2 d2c2 _7/8B2c2  | \
w:   | 
_7/8B2B2 A2A8z4A4B2 A2B4z4d2 d2d4e4z4e4e2 g2f2 e2e3d^c2 d2c2 d2c2 e2d2 c2B2 c2B2 A2B8z4c2 d2e4g2 =f4 e2d2 d2c2 z2g2  | 
w:   | 
=f2e2 e3d ^c2d2 c2d2 efed d8 z4  | \
w:   | 
d2e2 f2g2 e2a2 g2f2 ^e2f4z4f2 f2f4a4a2 g2f2 =e2e2 d2^c2 d4 z4 e2f2  | 
w:   | 
g2e2 =f2d2 g2f2 e2d2 ^c2_7/8B2 A4 z4 c2d2  | \
w:   | 
e4 d2^c2 c2_7/8B2 c2B2 A2A2 G2A2 G2F2 z2G4B2 A6c2 B6d2 c2e2 d4 z4  | 
w:   | 
d2d2 d4 e2d2 ^c2z4c2 d2c2 d2c2 _7/8B2z4B2 B2B4c2 B2A2 B3A G2A2 B4 e2d2  | 
w:   | 
d2^c4_7/8B2 BABc B2A2 A8 z4 z4  | \
w:   | 
z4 a2a2 a4 =b2a2 ^g2^1/4f3ed4c'4b2  | 
w:   | 
a2b3a^g2 a2g2 a2=b2 a2a8a8z8z4a4a4c'2 b2a2 a2=g4f4g2 f3e f2g2 f2e2 d2^c2 d4 a2g4f2 e2f2 e2=f2 e2d6 d6z2 c2d2  | 
w:   | 
e2f2 g2=b2 a2g2 g2f3ed4b4a2 g2g6 f2fe fgf2 e2e8e4z4b2  | 
w:   | 
a4 g2f2 a2g4f2 e2f4e2 d2e2 =f2e2  | \
w:   | 
d2^c2 z4 d2d2 d2d2 e2d2 c2e2 d2e2 d2c2  | 
w:   | 
d6z2 ^c2d2 e2f2 g8 g2f2 g2f2  | e2g2 f3e d4 e2=f2 e2d2 e2g2 ^f2e2 e2d2  | 
w:   |   | 
e2d2 ^c2d8z4z4z4z4d8=b2 c'2b2 a2a8a4z4z4a2 a2a4_1/4b2 a2g2 g4 f4 g2c'2 b2a2  | 
w:   | 
a4 g4 g4 a2g2 f2g8g8z4z4z4b2 a2a2 g4 f2g2 f3e  | \
w:   | 
f3e d8 d4 a2b2 a2g4f2 f2e2  | 
w:   | 
g2f2 e2e8e4z4f4g4g4g4g2 f6f3ed4z4e2 =f2f4g2 f2e2 e2d2 e2d2 ^c2_7/8B4c4z4d2  | 
w:   | 
d2d4e2 d2^c2 c4 d2c2 _7/8B2B4B2 A2d2  | \
w:   | 
^c2_7/8B2 A2G8z4A2 B2B4c2 B2A2  | 
w:   | 
A8 ^G8 z4 _7/8B4 B4 A4  | _7/8B3A ^G2A2 B4 e2d2 d2^c4B2 BABc B2A2  | 
w:   |   | 
A8 z4 z4 A8 e2=f2 e2d2  | c4 d4 d4 z4 e2d2 e2d2 c2d4e6 z2d2 e2f2 g2a4g2 f2a2 g2f2 e2d4c2 B2a2 g2=f2 e2d4e2 f2e2 d2z4c4d4d4e4d2 e2d4c2 B2c2 d2c2  | 
w:   |   | 
B2c4c6 z2z4g4g4a2 _b2a4g2 =f2e4d4e2 d4 B2c2 B2e2 ^f2e2  | 
w:   | 
d2e2 d2^c2 d2c2 d2e2 c2d8d4z4g2 a2g2 f2g4a6 z2z4a4a4b4c'4b2 a2g2 f2e4f2 g2f2 e2f4f6 z2z4e2 f2g4a4a4g2  | 
w:   | 
=f2e4d4e2 d2e2 d2c2 d4 d6z2  | z4 d4 d4 a4 g4 =f2e2 d4 c2B2  | 
w:   |   | 
e4 d2c2 c2B2 B2A2 c2B2 A2A8A4z4A2 G2F2 G2A8G4A4A6 z2e3dd3cc3BB3AA2 G2F2 B2A2  | 
w:   | 
G4 A2GF F8 z4 F2G2 A4 F4  | AGFG A4 A4 B2c2 d4 e4 e2=f2 edd2  | 
w:   |   | 
e2dc dcd2 cBc2 d2c3Bc2 d2c2 e2d2 c2B2  | \
w:   | 
B2d2 c2B2 c2BA A6z2 A4 e4 e2=f2  | 
w:   | 
edd2 e2dc e2d3cc3BB3Ac3BA2 G2F2  | \
w:   | 
B2A2 G4 GFF8z4F2 G2A4F4AG FGA4A4B2 c2d4e4e2 =f2ed  | 
w:   | 
d2e2 dcc2 d2cB B2c2 BAA4c2 B2A2 G2F2  | \
w:   | 
B2A2 G4 A2GF F8 f4 f2gf ^eeg2  | 
w:   | 
a2gf f4 z2a4b2 a2b2 aggf g2fe e4  | \
w:   | 
a2ag f2g2 a4 g2f2 d'2c'2 b2a2 a2g2 a2gf  | 
w:   | 
fe2d g/f/g/a/gf f4 z2g4f2 g2f2 g2a2 g2a2  | \
w:   | 
f2g2 e2e4d2 ede2 dcB2 e2d4cB cBA2  | 
w:   | 
A2A4A2 d2d2 c2B2 A2G2 F2c2 BAAG A2GF  | \
w:   | 
F4 z2A2 =B2^c2 d2d4z2 G2G2 G2G4G2  | 
w:   | 
G2G2 G2e3dd2 dccB BAd2 dcB2 B2AG G2A4A2 A2G2 A2B2 AGG6 g2g4d2 g4  | 
w:   | 
f2a4g2 g2gf fed4d2 d2d2 ^c2e3dd6 z4 z2d6 d2=c2 d2e2 d2c2 B2A2  | 
w:   | 
G2AB A2G2 A2B2 AGG6 z4 z2|
w:   | 


